X: 1
T:Paddy Fahy's
M:2/2
L:1/8
Q:224
S:Session tune
R:Reel
K:DDor
D3   E FE FG | Ad d^c d3   e | fe df ed cA | dc AG FG EF | D3   E FE FG
| Ad d^c d3   e | fe df ed cA | dc AG FD D2 :||: d2 fd Ad fd |
c2 Gc Ec Gc | Ad ~d2 de fd | cB cd e2 dc | a2 ga AB cA | dc AG FG EF |
D3   E FE FG | Ad d^c d4 :||
